fs/arrow_autofit_height_20_filled.svg

<svg viewBox="0 0 20 20" fill="none" xmlns="http://www.w3.org/2000/svg" height="1em" width="1em">
  <path d="M15.0027 4.49838L15.7121 5.23289C15.9998 5.53084 16.4746 5.53911 16.7726 5.25137C17.0705 4.96362 17.0788 4.48882 16.7911 4.19087L14.9701 2.30532C14.577 1.89823 13.9246 1.89823 13.5315 2.30532L11.7105 4.19087C11.4228 4.48882 11.431 4.96362 11.729 5.25137C12.0269 5.53911 12.5017 5.53084 12.7895 5.23289L13.5027 4.49433V7.25C13.5027 7.66421 13.8385 8 14.2527 8C14.667 8 15.0027 7.66421 15.0027 7.25V4.49838ZM3 5C3 3.89543 3.89543 3 5 3H9.25C9.66421 3 10 3.33579 10 3.75C10 4.16421 9.66421 4.5 9.25 4.5H5C4.72386 4.5 4.5 4.72386 4.5 5V15C4.5 15.2761 4.72386 15.5 5 15.5H9.25C9.66421 15.5 10 15.8358 10 16.25C10 16.6642 9.66421 17 9.25 17H5C3.89543 17 3 16.1046 3 15V5ZM15.7121 14.7671L15.0027 15.5016V12.75C15.0027 12.3358 14.667 12 14.2527 12C13.8385 12 13.5027 12.3358 13.5027 12.75V15.5057L12.7895 14.7671C12.5017 14.4692 12.0269 14.4609 11.729 14.7486C11.431 15.0364 11.4228 15.5112 11.7105 15.8091L13.5315 17.6947C13.9246 18.1018 14.577 18.1018 14.9701 17.6947L16.7911 15.8091C17.0788 15.5112 17.0705 15.0364 16.7726 14.7486C16.4746 14.4609 15.9998 14.4692 15.7121 14.7671Z" fill="#212121"/>
</svg>

<svg viewBox="0 0 20 20" fill="none" xmlns="http://www.w3.org/2000/svg" height="1em" width="1em">
  <path d="m15.003 4.498.71.735A.75.75 0 0 0 16.79 4.19l-1.82-1.886a1 1 0 0 0-1.44 0L11.71 4.19a.75.75 0 0 0 1.079 1.042l.713-.739V7.25a.75.75 0 0 0 1.5 0V4.498ZM3 5a2 2 0 0 1 2-2h4.25a.75.75 0 0 1 0 1.5H5a.5.5 0 0 0-.5.5v10a.5.5 0 0 0 .5.5h4.25a.75.75 0 0 1 0 1.5H5a2 2 0 0 1-2-2V5Zm12.712 9.767-.71.735V12.75a.75.75 0 1 0-1.5 0v2.756l-.713-.739a.75.75 0 0 0-1.079 1.042l1.821 1.886a1 1 0 0 0 1.44 0l1.82-1.886a.75.75 0 0 0-1.079-1.042Z" fill="#212121"/>
</svg>
